X:351
T:Tea Gardens
C:Angus Chisholm
D:Early Recordings of Angus Chisholm
Z:Nigel Gatherer
L:1/8
M:6/8
K:G
B2 c|d^cd b2 a|g2 d B2 d|cBc ezc|A3- A2 G|
FDF A2 d|f2 d A2 B|cBc edc|B3 B2 c|
d^cd b2 a|g2 d B2 d|cBc ezc|A3- A2 G|
DF A2 d|f2 d A2 B|cBc bfa|1g3:|2g3 g2||
z|B,DG BGD|B,DG Bdg|e^de B2 =d|c3- c2 B|
ABc ABc|a2 g f2 e|d^cd ed=c|B3 d3|
B,DG BGD|B,DG Bdg|e^de B2 =d|c3- c2 B|
ABc a2 g|f2 e A2b|c'bc' e2 f|g3|]
